X:281
T:Three Camps, or Points of War
S:Bruce & Emmett's Drummers and Fifers Guide (1862), p. 28, on which Camp Duties are presented
M:2/4
L:1/16
K:G
%%MIDI program 72
%%MIDI transpose 8
%%MIDI ratio 3 1
P:1st CAMP.
B>GA>F G2g2|f>de>^c d3=c|B>GA>F G2g2|[1 f>de>^c d3=c:|[2 f>de>^c (d2(3def)||
P:2nd CAMP.
g>dB>G e3e|d>e (3(dcB) A3c|B>GA>F G2g2|[1 B>GA>F G2 (3(def):|[2 B>GA>F G2||
P:3d CAMP.
c2|B3A G2 zg|f>de>^c d3c|B3A G2z g|f>de>^c d2 (3(def)|
|:g>dB>G e3e|d>e (3(dcB) A3c|B>GA>F G2g2|[1 B>GA>F G2 (3(def):|[2 f>ga>f g2z2||
